Costumes/basketball.svg

<?xml version="1.0" encoding="UTF-8" standalone="no"?>
<svg
   version="1.1"
   width="75.302925"
   height="75.442566"
   id="svg30"
   sodipodi:docname="basketball.svg"
   xmlns:inkscape="http://www.inkscape.org/namespaces/inkscape"
   xmlns:sodipodi="http://sodipodi.sourceforge.net/DTD/sodipodi-0.dtd"
   xmlns="http://www.w3.org/2000/svg"
   xmlns:svg="http://www.w3.org/2000/svg">
  <defs
     id="defs34" />
  <sodipodi:namedview
     id="namedview32"
     pagecolor="#ffffff"
     bordercolor="#000000"
     borderopacity="0.25"
     inkscape:showpageshadow="2"
     inkscape:pageopacity="0.0"
     inkscape:pagecheckerboard="0"
     inkscape:deskcolor="#d1d1d1" />
  <!-- Exported by Scratch - http://scratch.mit.edu/ -->
  <g
     id="ID0.8781489403918386"
     transform="matrix(0.90249997,0,0,0.90249997,-0.62377639,-0.26099118)">
    <path
       id="ID0.42939980793744326"
       fill="#725619"
       d="m 80.578,16.992 c -2.092,0.634 -6.845,-1.392 -6.921,1.258 -4.166,-2.659 5.601,-2.361 6.921,-1.258 z"
       transform="matrix(0.73509192,0,0,0.73509192,-13.15,-8.75)" />
    <path
       id="ID0.2971645426005125"
       fill="#725619"
       d="m 115.189,63.56 c 1.912,-1.045 8.16,-1.045 10.069,0 -3.356,0 -6.712,0 -10.069,0 z"
       transform="matrix(0.73509192,0,0,0.73509192,-13.15,-8.75)" />
    <path
       id="ID0.40910265455022454"
       fill="#a4a3a3"
       d="m 131.551,62.931 c 1.047,2.325 1.047,9.002 0,11.327 0,-3.776 0,-7.551 0,-11.327 z"
       transform="matrix(0.73509192,0,0,0.73509192,-13.15,-8.75)" />
    <path
       id="ID0.0037109493277966976"
       fill="#c48402"
       d="m 76.173,96.913 c 0,2.098 0,4.196 0,6.292 -1.042,-0.678 -1.042,-5.613 0,-6.292 z"
       transform="matrix(0.73509192,0,0,0.73509192,-13.15,-8.75)" />
    <path
       id="ID0.8889813269488513"
       fill="#c48402"
       d="m 81.208,104.464 c -1.043,-0.678 -1.043,-5.614 0,-6.292 0,2.099 0,4.196 0,6.292 z"
       transform="matrix(0.73509192,0,0,0.73509192,-13.15,-8.75)" />
    <path
       id="ID0.10584816196933389"
       fill="#725619"
       d="m 71.769,121.456 c 2.936,0 5.874,0 8.809,0 0.87,0.914 -7.624,1.142 -8.809,0 z"
       transform="matrix(0.73509192,0,0,0.73509192,-13.15,-8.75)" />
    <path
       id="ID0.310271377209574"
       fill="#a4a3a3"
       d="m 71.139,125.232 c 2.727,0 5.455,0 8.181,0 -1.291,1.043 -6.89,1.043 -8.181,0 z"
       transform="matrix(0.73509192,0,0,0.73509192,-13.15,-8.75)" />
    <path
       id="ID0.29946120362728834"
       fill="#a4a3a3"
       d="m 110.785,113.273 c 2.673,-3.198 5.611,-6.135 8.811,-8.811 -2.674,3.202 -5.612,6.14 -8.811,8.811 z"
       transform="matrix(0.73509192,0,0,0.73509192,-13.15,-8.75)" />
    <path
       id="ID0.6184042701497674"
       fill="#c48402"
       d="m 84.354,52.232 c 2.463,-2.99 5.191,-5.716 8.183,-8.18 -2.465,2.99 -5.191,5.716 -8.183,8.18 z"
       transform="matrix(0.73509192,0,0,0.73509192,-13.15,-8.75)" />
    <path
       id="ID0.8687649718485773"
       fill="#2a2725"
       d="M 71.139,125.232 C 29.411,123.57 5.737,76.277 26.458,40.275 30.743,32.831 36.898,25.608 43.45,21.396 c 34.993,-22.503 85.12,-1.244 88.102,41.534 0,3.776 0,7.552 0,11.327 -1.116,12.938 -6.409,21.698 -11.956,30.206 -3.199,2.676 -6.138,5.611 -8.811,8.811 -8.695,5.778 -17.992,10.953 -31.465,11.959 -2.727,-0.001 -5.454,-0.001 -8.181,-0.001 z"
       transform="matrix(0.73509192,0,0,0.73509192,-13.15,-8.75)" />
    <path
       id="ID0.3568889098241925"
       fill="#2a2725"
       d="m 73.657,18.25 c 3.78,10.958 1.638,26.613 -3.147,34.612 2.478,2.138 5.494,3.737 8.18,5.665 1.512,-2.475 4.154,-3.818 5.664,-6.294 2.992,-2.464 5.719,-5.19 8.183,-8.18 C 98.244,39.061 103.77,33.891 109.526,28.949 101.792,23.051 93.253,17.956 80.579,16.993 79.258,15.889 69.491,15.591 73.657,18.25 Z"
       transform="matrix(0.73509192,0,0,0.73509192,-13.15,-8.75)" />
    <path
       id="ID0.5225331471301615"
       fill="#2a2725"
       d="M 34.01,37.758 C 46.571,40.51 57.078,45.316 66.734,50.974 72.753,43.007 73.337,28.036 69.881,16.992 53.457,19.446 41.47,26.339 34.01,37.758 Z"
       transform="matrix(0.73509192,0,0,0.73509192,-13.15,-8.75)" />
    <path
       id="ID0.06379866832867265"
       fill="#2a2725"
       d="m 86.872,55.378 c -1.299,2.269 -3.735,3.397 -5.035,5.664 3.438,2.226 6.001,5.327 9.44,7.552 7.529,-7.574 20.869,-9.338 35.24,-10.069 -2.836,-10.592 -7.172,-19.68 -13.846,-26.431 -6.072,3.577 -10.27,9.03 -15.732,13.216 -3.617,3.093 -6.972,6.449 -10.067,10.068 z"
       transform="matrix(0.73509192,0,0,0.73509192,-13.15,-8.75)" />
    <path
       id="ID0.2746362257748842"
       fill="#2a2725"
       d="M 30.863,41.534 C 27.071,48.649 23.886,56.373 23.942,67.335 41.803,70.223 58.818,63.681 63.588,53.491 53.307,48.879 43.704,43.588 30.863,41.534 Z"
       transform="matrix(0.73509192,0,0,0.73509192,-13.15,-8.75)" />
    <path
       id="ID0.3849429786205292"
       fill="#2a2725"
       d="M 67.363,56.638 C 59.297,67.895 43.89,75.085 23.942,72.369 c 2.311,15.1 7.537,27.286 17.62,34.613 C 51.19,89.968 64.08,76.22 75.544,61.042 72.411,59.98 70.836,57.359 67.363,56.638 Z"
       transform="matrix(0.73509192,0,0,0.73509192,-13.15,-8.75)" />
    <path
       id="ID0.024530946277081966"
       fill="#2a2725"
       d="m 115.189,63.56 c -4.914,-0.109 -20.703,5.4 -20.767,8.81 -0.008,0.446 5.267,5.129 6.293,6.293 6.019,6.828 12.519,15.813 15.104,22.657 8.304,-8.061 11.848,-20.877 11.328,-37.76 -0.631,0 -1.26,0 -1.89,0 -1.907,-1.045 -8.155,-1.045 -10.068,0 z"
       transform="matrix(0.73509192,0,0,0.73509192,-13.15,-8.75)" />
    <path
       id="ID0.07299845246598125"
       fill="#2a2725"
       d="m 76.173,96.913 c 0.468,-12.117 6.343,-18.83 11.328,-26.431 -3.37,-1.665 -5.073,-4.995 -8.812,-6.293 -11.987,14.864 -24.738,28.963 -33.981,46.568 7.431,5.155 15.48,9.693 27.06,10.699 1.185,1.142 9.679,0.914 8.809,0 -1.849,-5.703 -4.41,-10.692 -4.404,-18.251 0,-2.096 0,-4.194 0,-6.292 z"
       transform="matrix(0.73509192,0,0,0.73509192,-13.15,-8.75)" />
    <path
       id="ID0.6075319410301745"
       fill="#2a2725"
       d="m 81.208,104.464 c -0.239,6.953 2.362,11.062 3.776,16.363 12.649,-2.243 22.181,-7.604 28.316,-16.363 -5.941,-11.466 -12.564,-22.255 -22.654,-29.577 -4.547,6.362 -9.375,12.441 -9.438,23.285 -1.042,0.678 -1.042,5.614 0,6.292 z"
       transform="matrix(0.73509192,0,0,0.73509192,-13.15,-8.75)" />
    <path
       id="ID0.1976206637918949"
       fill="#ffad00"
       d="m 80.578,16.992 c 12.674,0.962 21.213,6.058 28.947,11.956 -5.756,4.943 -11.282,10.113 -16.989,15.104 -2.99,2.463 -5.72,5.189 -8.183,8.18 -1.51,2.476 -4.152,3.819 -5.664,6.294 -2.687,-1.928 -5.703,-3.526 -8.18,-5.665 4.785,-7.999 6.928,-23.654 3.147,-34.612 0.077,-2.649 4.83,-0.624 6.922,-1.257 z"
       transform="matrix(0.73509192,0,0,0.73509192,-13.15,-8.75)" />
    <path
       id="ID0.7045095204375684"
       fill="#725619"
       d="m 86.872,55.378 c 3.096,-3.619 6.45,-6.975 10.067,-10.068 -3.093,3.619 -6.448,6.976 -10.067,10.068 z"
       transform="matrix(0.73509192,0,0,0.73509192,-13.15,-8.75)" />
    <path
       id="ID0.202673374209553"
       fill="#ffad00"
       d="m 96.939,45.311 c 5.465,-4.186 9.66,-9.639 15.732,-13.216 6.674,6.751 11.01,15.839 13.846,26.431 -14.371,0.73 -27.711,2.495 -35.24,10.069 -3.439,-2.225 -6.002,-5.327 -9.44,-7.552 1.3,-2.267 3.736,-3.396 5.035,-5.664 3.619,-3.093 6.974,-6.45 10.067,-10.068 z"
       transform="matrix(0.73509192,0,0,0.73509192,-13.15,-8.75)" />
    <path
       id="ID0.6094344258308411"
       fill="#ffad00"
       d="m 125.259,63.56 c 0.63,0 1.259,0 1.89,0 0.52,16.883 -3.024,29.7 -11.328,37.76 -2.586,-6.844 -9.086,-15.829 -15.104,-22.657 -1.026,-1.164 -6.301,-5.847 -6.293,-6.293 0.062,-3.41 15.853,-8.919 20.767,-8.81 3.355,0 6.711,0 10.068,0 z"
       transform="matrix(0.73509192,0,0,0.73509192,-13.15,-8.75)" />
    <path
       id="ID0.2581343511119485"
       fill="#ffad00"
       d="m 71.769,121.456 c -11.58,-1.006 -19.629,-5.544 -27.06,-10.699 9.243,-17.604 21.994,-31.704 33.98,-46.568 3.738,1.298 5.441,4.628 8.812,6.293 -4.984,7.601 -10.859,14.313 -11.328,26.431 -1.042,0.679 -1.042,5.614 0,6.292 -0.006,7.559 2.557,12.548 4.404,18.251 -2.934,0 -5.872,0 -8.808,0 z"
       transform="matrix(0.73509192,0,0,0.73509192,-13.15,-8.75)" />
    <path
       id="ID0.6018042843788862"
       fill="#ffad00"
       d="m 81.208,98.172 c 0.063,-10.844 4.892,-16.923 9.438,-23.285 10.09,7.322 16.713,18.111 22.654,29.577 -6.137,8.759 -15.667,14.12 -28.316,16.363 -1.414,-5.302 -4.017,-9.41 -3.776,-16.363 0,-2.096 0,-4.193 0,-6.292 z"
       transform="matrix(0.73509192,0,0,0.73509192,-13.15,-8.75)" />
    <path
       id="ID0.26782077783718705"
       fill="#ffad00"
       d="m 63.588,53.491 c -4.77,10.19 -21.785,16.732 -39.646,13.844 -0.055,-10.962 3.129,-18.686 6.921,-25.801 12.841,2.054 22.444,7.345 32.725,11.957 z"
       transform="matrix(0.73509192,0,0,0.73509192,-13.15,-8.75)" />
    <path
       id="ID0.6840811623260379"
       fill="#ffad00"
       d="M 75.543,61.042 C 64.079,76.22 51.189,89.968 41.561,106.982 31.478,99.654 26.252,87.467 23.941,72.369 c 19.948,2.716 35.355,-4.475 43.421,-15.731 3.474,0.721 5.049,3.342 8.181,4.404 z"
       transform="matrix(0.73509192,0,0,0.73509192,-13.15,-8.75)" />
    <path
       id="ID0.3140264614485204"
       fill="#ffad00"
       d="M 69.88,16.992 C 73.336,28.037 72.752,43.007 66.733,50.974 57.078,45.316 46.57,40.511 34.009,37.758 41.47,26.339 53.457,19.446 69.88,16.992 Z"
       transform="matrix(0.73509192,0,0,0.73509192,-13.15,-8.75)" />
  </g>
</svg>

<svg version="1.1" width="85" height="84" xmlns="http://www.w3.org/2000/svg" xmlns:xlink="http://www.w3.org/1999/xlink">
  <!-- Exported by Scratch - http://scratch.mit.edu/ -->
  <g id="ID0.8781489403918386" transform="matrix(0.9024999737739563, 0, 0, 0.9024999737739563, 0.05, 0.05)">
    <path id="ID0.42939980793744326" fill="#725619" d="M 80.578 16.992 C 78.486 17.626 73.733 15.600 73.657 18.250 C 69.491 15.591 79.258 15.889 80.578 16.992 L 80.578 16.992 L 80.578 16.992 Z " transform="matrix(0.7350919246673584, 0, 0, 0.7350919246673584, -13.15, -8.75)"/>
    <path id="ID0.2971645426005125" fill="#725619" d="M 115.189 63.560 C 117.101 62.515 123.349 62.515 125.258 63.560 C 121.902 63.560 118.546 63.560 115.189 63.560 L 115.189 63.560 L 115.189 63.560 Z " transform="matrix(0.7350919246673584, 0, 0, 0.7350919246673584, -13.15, -8.75)"/>
    <path id="ID0.40910265455022454" fill="#A4A3A3" d="M 131.551 62.931 C 132.598 65.256 132.598 71.933 131.551 74.258 C 131.551 70.482 131.551 66.707 131.551 62.931 L 131.551 62.931 L 131.551 62.931 Z " transform="matrix(0.7350919246673584, 0, 0, 0.7350919246673584, -13.15, -8.75)"/>
    <path id="ID0.0037109493277966976" fill="#C48402" d="M 76.173 96.913 C 76.173 99.011 76.173 101.109 76.173 103.205 C 75.131 102.527 75.131 97.592 76.173 96.913 L 76.173 96.913 L 76.173 96.913 Z " transform="matrix(0.7350919246673584, 0, 0, 0.7350919246673584, -13.15, -8.75)"/>
    <path id="ID0.8889813269488513" fill="#C48402" d="M 81.208 104.464 C 80.165 103.786 80.165 98.850 81.208 98.172 C 81.208 100.271 81.208 102.368 81.208 104.464 L 81.208 104.464 L 81.208 104.464 Z " transform="matrix(0.7350919246673584, 0, 0, 0.7350919246673584, -13.15, -8.75)"/>
    <path id="ID0.10584816196933389" fill="#725619" d="M 71.769 121.456 C 74.705 121.456 77.643 121.456 80.578 121.456 C 81.448 122.370 72.954 122.598 71.769 121.456 L 71.769 121.456 L 71.769 121.456 Z " transform="matrix(0.7350919246673584, 0, 0, 0.7350919246673584, -13.15, -8.75)"/>
    <path id="ID0.310271377209574" fill="#A4A3A3" d="M 71.139 125.232 C 73.866 125.232 76.594 125.232 79.320 125.232 C 78.029 126.275 72.430 126.275 71.139 125.232 L 71.139 125.232 L 71.139 125.232 Z " transform="matrix(0.7350919246673584, 0, 0, 0.7350919246673584, -13.15, -8.75)"/>
    <path id="ID0.29946120362728834" fill="#A4A3A3" d="M 110.785 113.273 C 113.458 110.075 116.396 107.138 119.596 104.462 C 116.922 107.664 113.984 110.602 110.785 113.273 L 110.785 113.273 L 110.785 113.273 Z " transform="matrix(0.7350919246673584, 0, 0, 0.7350919246673584, -13.15, -8.75)"/>
    <path id="ID0.6184042701497674" fill="#C48402" d="M 84.354 52.232 C 86.817 49.242 89.545 46.516 92.537 44.052 C 90.072 47.042 87.346 49.768 84.354 52.232 L 84.354 52.232 L 84.354 52.232 Z " transform="matrix(0.7350919246673584, 0, 0, 0.7350919246673584, -13.15, -8.75)"/>
    <path id="ID0.8687649718485773" fill="#2A2725" d="M 71.139 125.232 C 29.411 123.570 5.737 76.277 26.458 40.275 C 30.743 32.831 36.898 25.608 43.450 21.396 C 78.443 -1.107 128.570 20.152 131.552 62.930 C 131.552 66.706 131.552 70.482 131.552 74.257 C 130.436 87.195 125.143 95.955 119.596 104.463 C 116.397 107.139 113.458 110.074 110.785 113.274 C 102.090 119.052 92.793 124.227 79.320 125.233 C 76.593 125.232 73.866 125.232 71.139 125.232 L 71.139 125.232 L 71.139 125.232 Z " transform="matrix(0.7350919246673584, 0, 0, 0.7350919246673584, -13.15, -8.75)"/>
    <path id="ID0.3568889098241925" fill="#2A2725" d="M 73.657 18.250 C 77.437 29.208 75.295 44.863 70.510 52.862 C 72.988 55 76.004 56.599 78.690 58.527 C 80.202 56.052 82.844 54.709 84.354 52.233 C 87.346 49.769 90.073 47.043 92.537 44.053 C 98.244 39.061 103.770 33.891 109.526 28.949 C 101.792 23.051 93.253 17.956 80.579 16.993 C 79.258 15.889 69.491 15.591 73.657 18.250 L 73.657 18.250 L 73.657 18.250 Z " transform="matrix(0.7350919246673584, 0, 0, 0.7350919246673584, -13.15, -8.75)"/>
    <path id="ID0.5225331471301615" fill="#2A2725" d="M 34.010 37.758 C 46.571 40.510 57.078 45.316 66.734 50.974 C 72.753 43.007 73.337 28.036 69.881 16.992 C 53.457 19.446 41.470 26.339 34.010 37.758 L 34.010 37.758 L 34.010 37.758 Z " transform="matrix(0.7350919246673584, 0, 0, 0.7350919246673584, -13.15, -8.75)"/>
    <path id="ID0.06379866832867265" fill="#2A2725" d="M 86.872 55.378 C 85.573 57.647 83.137 58.775 81.837 61.042 C 85.275 63.268 87.838 66.369 91.277 68.594 C 98.806 61.020 112.146 59.256 126.517 58.525 C 123.681 47.933 119.345 38.845 112.671 32.094 C 106.599 35.671 102.401 41.124 96.939 45.310 C 93.322 48.403 89.967 51.759 86.872 55.378 L 86.872 55.378 L 86.872 55.378 Z " transform="matrix(0.7350919246673584, 0, 0, 0.7350919246673584, -13.15, -8.75)"/>
    <path id="ID0.2746362257748842" fill="#2A2725" d="M 30.863 41.534 C 27.071 48.649 23.886 56.373 23.942 67.335 C 41.803 70.223 58.818 63.681 63.588 53.491 C 53.307 48.879 43.704 43.588 30.863 41.534 L 30.863 41.534 L 30.863 41.534 Z " transform="matrix(0.7350919246673584, 0, 0, 0.7350919246673584, -13.15, -8.75)"/>
    <path id="ID0.3849429786205292" fill="#2A2725" d="M 67.363 56.638 C 59.297 67.895 43.890 75.085 23.942 72.369 C 26.253 87.469 31.479 99.655 41.562 106.982 C 51.190 89.968 64.080 76.220 75.544 61.042 C 72.411 59.980 70.836 57.359 67.363 56.638 L 67.363 56.638 L 67.363 56.638 Z " transform="matrix(0.7350919246673584, 0, 0, 0.7350919246673584, -13.15, -8.75)"/>
    <path id="ID0.024530946277081966" fill="#2A2725" d="M 115.189 63.560 C 110.275 63.451 94.486 68.960 94.422 72.370 C 94.414 72.816 99.689 77.499 100.715 78.663 C 106.734 85.491 113.234 94.476 115.819 101.320 C 124.123 93.259 127.667 80.443 127.147 63.560 C 126.516 63.560 125.887 63.560 125.257 63.560 C 123.350 62.515 117.102 62.515 115.189 63.560 L 115.189 63.560 L 115.189 63.560 Z " transform="matrix(0.7350919246673584, 0, 0, 0.7350919246673584, -13.15, -8.75)"/>
    <path id="ID0.07299845246598125" fill="#2A2725" d="M 76.173 96.913 C 76.641 84.796 82.516 78.083 87.501 70.482 C 84.131 68.817 82.428 65.487 78.689 64.189 C 66.702 79.053 53.951 93.152 44.708 110.757 C 52.139 115.912 60.188 120.450 71.768 121.456 C 72.953 122.598 81.447 122.370 80.577 121.456 C 78.728 115.753 76.167 110.764 76.173 103.205 C 76.173 101.109 76.173 99.011 76.173 96.913 L 76.173 96.913 L 76.173 96.913 Z " transform="matrix(0.7350919246673584, 0, 0, 0.7350919246673584, -13.15, -8.75)"/>
    <path id="ID0.6075319410301745" fill="#2A2725" d="M 81.208 104.464 C 80.969 111.417 83.570 115.526 84.984 120.827 C 97.633 118.584 107.165 113.223 113.300 104.464 C 107.359 92.998 100.736 82.209 90.646 74.887 C 86.099 81.249 81.271 87.328 81.208 98.172 C 80.166 98.850 80.166 103.786 81.208 104.464 L 81.208 104.464 L 81.208 104.464 Z " transform="matrix(0.7350919246673584, 0, 0, 0.7350919246673584, -13.15, -8.75)"/>
    <path id="ID0.1976206637918949" fill="#FFAD00" d="M 80.578 16.992 C 93.252 17.954 101.791 23.050 109.525 28.948 C 103.769 33.891 98.243 39.061 92.536 44.052 C 89.546 46.515 86.816 49.241 84.353 52.232 C 82.843 54.708 80.201 56.051 78.689 58.526 C 76.002 56.598 72.986 55 70.509 52.861 C 75.294 44.862 77.437 29.207 73.656 18.249 C 73.733 15.600 78.486 17.625 80.578 16.992 L 80.578 16.992 L 80.578 16.992 Z " transform="matrix(0.7350919246673584, 0, 0, 0.7350919246673584, -13.15, -8.75)"/>
    <path id="ID0.7045095204375684" fill="#725619" d="M 86.872 55.378 C 89.968 51.759 93.322 48.403 96.939 45.310 C 93.846 48.929 90.491 52.286 86.872 55.378 L 86.872 55.378 L 86.872 55.378 Z " transform="matrix(0.7350919246673584, 0, 0, 0.7350919246673584, -13.15, -8.75)"/>
    <path id="ID0.202673374209553" fill="#FFAD00" d="M 96.939 45.311 C 102.404 41.125 106.599 35.672 112.671 32.095 C 119.345 38.846 123.681 47.934 126.517 58.526 C 112.146 59.256 98.806 61.021 91.277 68.595 C 87.838 66.370 85.275 63.268 81.837 61.043 C 83.137 58.776 85.573 57.647 86.872 55.379 C 90.491 52.286 93.846 48.929 96.939 45.311 L 96.939 45.311 L 96.939 45.311 Z " transform="matrix(0.7350919246673584, 0, 0, 0.7350919246673584, -13.15, -8.75)"/>
    <path id="ID0.6094344258308411" fill="#FFAD00" d="M 125.259 63.560 C 125.889 63.560 126.518 63.560 127.149 63.560 C 127.669 80.443 124.125 93.260 115.821 101.320 C 113.235 94.476 106.735 85.491 100.717 78.663 C 99.691 77.499 94.416 72.816 94.424 72.370 C 94.486 68.960 110.277 63.451 115.191 63.560 C 118.546 63.560 121.902 63.560 125.259 63.560 L 125.259 63.560 L 125.259 63.560 Z " transform="matrix(0.7350919246673584, 0, 0, 0.7350919246673584, -13.15, -8.75)"/>
    <path id="ID0.2581343511119485" fill="#FFAD00" d="M 71.769 121.456 C 60.189 120.450 52.140 115.912 44.709 110.757 C 53.952 93.153 66.703 79.053 78.689 64.189 C 82.427 65.487 84.130 68.817 87.501 70.482 C 82.517 78.083 76.642 84.795 76.173 96.913 C 75.131 97.592 75.131 102.527 76.173 103.205 C 76.167 110.764 78.730 115.753 80.577 121.456 C 77.643 121.456 74.705 121.456 71.769 121.456 L 71.769 121.456 L 71.769 121.456 Z " transform="matrix(0.7350919246673584, 0, 0, 0.7350919246673584, -13.15, -8.75)"/>
    <path id="ID0.6018042843788862" fill="#FFAD00" d="M 81.208 98.172 C 81.271 87.328 86.100 81.249 90.646 74.887 C 100.736 82.209 107.359 92.998 113.300 104.464 C 107.163 113.223 97.633 118.584 84.984 120.827 C 83.570 115.525 80.967 111.417 81.208 104.464 C 81.208 102.368 81.208 100.271 81.208 98.172 L 81.208 98.172 L 81.208 98.172 Z " transform="matrix(0.7350919246673584, 0, 0, 0.7350919246673584, -13.15, -8.75)"/>
    <path id="ID0.26782077783718705" fill="#FFAD00" d="M 63.588 53.491 C 58.818 63.681 41.803 70.223 23.942 67.335 C 23.887 56.373 27.071 48.649 30.863 41.534 C 43.704 43.588 53.307 48.879 63.588 53.491 L 63.588 53.491 L 63.588 53.491 Z " transform="matrix(0.7350919246673584, 0, 0, 0.7350919246673584, -13.15, -8.75)"/>
    <path id="ID0.6840811623260379" fill="#FFAD00" d="M 75.543 61.042 C 64.079 76.220 51.189 89.968 41.561 106.982 C 31.478 99.654 26.252 87.467 23.941 72.369 C 43.889 75.085 59.296 67.894 67.362 56.638 C 70.836 57.359 72.411 59.980 75.543 61.042 L 75.543 61.042 L 75.543 61.042 Z " transform="matrix(0.7350919246673584, 0, 0, 0.7350919246673584, -13.15, -8.75)"/>
    <path id="ID0.3140264614485204" fill="#FFAD00" d="M 69.880 16.992 C 73.336 28.037 72.752 43.007 66.733 50.974 C 57.078 45.316 46.570 40.511 34.009 37.758 C 41.470 26.339 53.457 19.446 69.880 16.992 L 69.880 16.992 L 69.880 16.992 Z " transform="matrix(0.7350919246673584, 0, 0, 0.7350919246673584, -13.15, -8.75)"/>
  </g>
</svg>
